X:1
T:Title
%%score { ( 1 3 ) | 2 }
L:1/8
M:4/4
K:F
V:1 treble nm="Grand Piano"
V:3 treble 
V:2 bass 
V:1
 z4 z2 z[Q:1/4=90] C | CFFG Accd | cA G>F [EG]3 C | CFFG Acc[Fd] | %4
 [Fc][CFA] [B,EG]>[A,CF] [A,CF]3 [A,_EF] | z4 z2 z [Fd] | dc c>A c3 A | AGGc c=BBc | e2 d2 [Ec]4 | %9
 ccAB ccdc | [EB]2 [EG]2 [EG]4 | [GB][GB][EG][FA] [GB][GB][Ac][GB] | [GB]2 A2 A3 c | %13
[M:7/8] ccA [GB] [Ac]3 |[M:1/8] f |[M:4/4] fddd d3 d | cccd cA[CFc][DGB] | %17
[M:7/8] [CFA]2 [B,EG]2 [A,CF]3 |] %18
V:2
 z4 z2 z [F,A,] | [F,A,][F,A,C][F,A,C][F,B,C] [F,CF][F,A,F][F,A,F][F,B,F] | %2
 [F,A,F][F,CF] [F,B,C]>[F,A,C] [C,C]3 [C,B,] | %3
 [F,A,][F,A,C][F,A,C][F,B,C] [F,CF][F,A,F][F,A,F][B,,B,] | [C,A,]C, C,>F, F,3 F, | %5
 B,,B,, B,,>B,, B,,3 .[B,,B,] | [F,B,F][F,A,F] [F,A,F]>[F,CF] [F,A,F]3 [F,CF] | %7
 [G,CE][G,CE][G,CE][G,EG] [G,EG][G,DG][G,DG][G,EG] | [G,CG]2 [G,=B,F]2[K:bass] [C,G,C]4 | %9
 [F,A,F][F,A,F][F,CF][F,CF] [F,A,F][F,A,F][F,B,F][F,A,F] | [C,G,]2 [C,C]2 [C,C]4 | %11
 [C,C][C,C][C,C][C,C] [C,C][C,C][C,C][C,C] | [F,C]2 [F,CF]2 [F,CF]3 [F,A,F] | %13
[M:7/8] [F,A,F][F,A,F][F,CF] [F,C][K:treble] [F,F]3 |[M:1/8] [A,CF] | %15
[M:4/4] [B,DF][B,F][B,F][B,F] [B,F]3 [B,F] | [F,A,F][F,A,F][F,A,F][F,B,F] [F,A,F][F,CF]A,,B,, | %17
[M:7/8] C,2 C,2 F,3 |] %18
V:3
 x8 | x8 | x8 | x8 | x8 | [B,DF][DFB] [DFB]>[DFB] [DFB]3 z/ D,/ | x8 | x8 | x8 | x8 | x8 | x8 | %12
 x8 |[M:7/8] x7 |[M:1/8] x |[M:4/4] x8 | x8 |[M:7/8] x7 |] %18

